X: 751
T: Ferahfezâ Seyir
C: Erol Bingöl
O: Turkey
F: http://compmusic.upf.edu/node/140
N: ferahfeza--seyir--sofyan--1--erol_bingol
N: makam= ferahfeza
N: form= seyir
N: usul= sofyan = 4/4
M: 4/4
L: 1/16
K: C _B   
Q: 1/4=60
%%MIDI tuningsystem comma53
c4 f2e2 f4 g2a2  | g2f2 e2d2 e3d c4  | \
w:   |   | 
d2e2 c2d2 e4 f2g2  | a2g2 f2e2 f8  | 
w:   |   | 
e2f2 g2a2 g4 a4  | g2c'4ba a8  | g2a2 g2f2 e4 d4  | \
w:   |   |   | 
c2_2/4B2 e2dc c8  | 
w:   | 
d2e2 f2e2 d4 c4  | c2d4cB B8  | A4 B2c2 d4 c2B2  | \
w:   |   |   | 
B2A2 c2BA A8  | 
w:   | 
A2B2 A2G2 A4 B4  | c2d2 c2B2 A3G F4  | \
w:   |   | 
E2F2 G2B2 A2G2 F2E2  | 
w:   | 
F3E D2^C2 D8  | |


